X: 25
T: Missa In feuers hitz / Gloria
N: Derived from Mar1007b-Missa_In_feuers_hitz-Gloria.krn
C: Johannes Martini
%%abc-version 2.0
%%abcx-abcm2ps-target-version 5.9.1 (29 Sep 2008)
%%abc-creator hum2abc beta
%%abcx-conversion-date 2019/02/17 07:19:41
%%abc-edited-by Jesse Rodin
%%abc-edited-by Chris Gage 10-02-2014
%%abcx-initial-encoding-date 2015/03/07/
%%humdrum-veritas 972203571
%%humdrum-veritas-data 1379003690
%%linebreak <none>
%%barnumbers 0
L: 1/4
M: 4/2
Q: 1/2=120
V: 1 clef=treble
V: 2 clef=treble-8
V: 3 clef=treble-8
K: C
[V:1] c4c2c2 | 
[V:2] z8 | 
[V:3] c4e2f2 | 
[V:1] B4c2G2 | 
[V:2] z8 | 
[V:3] g4c4 | 
[V:1] A2G4^F2 | 
[V:2] z8 | 
[V:3] c2B2A4 | 
[V:1] G4z2B2- | 
[V:2] z8 | 
[V:3] G4g4 | 
[V:1] B2A2c2c2 | 
[V:2] z8 | 
[V:3] g2f2e4 | 
[V:1] d4e4 | 
[V:2] z8 | 
[V:3] f2edc4 | 
[V:1] f2e4dc | 
[V:2] z8 | 
[V:3] d2c2e3f | 
[V:1] B2c4B2 | 
[V:2] z8 | 
[V:3] g2c2d4 | 
[V:1] c4z2G2 | 
[V:2] c4c2c2 | 
[V:3] c4e4 | 
[V:1] G4A2A2 | 
[V:2] e4f4 | 
[V:3] c2c2A2A2 | 
[V:1] B4c4 | 
[V:2] g4c4 | 
[V:3] G4g4 | 
[V:1] A4B2c2 | 
[V:2] d6c2 | 
[V:3] f4g2a2- | 
[V:1] d2e4dc | 
[V:2] B2G2A4 | 
[V:3] agg4^f2 | 
[V:1] B4z4 | 
[V:2] G4g4 | 
[V:3] g4e4 | 
[V:1] z8 | 
[V:2] f2e2d2c2 | 
[V:3] d2g2f2e2- | 
[V:1] z8 | 
[V:2] e4d4 | 
[V:3] edc4B2 | 
[V:1] g4f2e2 | 
[V:2] c4z2g2- | 
[V:3] c4d2c2 | 
[V:1] d2c2e2d2- | 
[V:2] g2a2g2f2- | 
[V:3] _B2A2c2d2 | 
[V:1] dcc4B2 | 
[V:2] f2e2d4 | 
[V:3] _B2c2G4 | 
[V:1] c8 | 
[V:2] c4z2c2 | 
[V:3] z2c2e2e2 | 
[V:1] z2c2e2e2 | 
[V:2] e2e2c4 | 
[V:3] c4z2A2- | 
[V:1] c2c2d2B2 | 
[V:2] e4d2g2- | 
[V:3] A2c2B2G2 | 
[V:1] A4G4 | 
[V:2] g2^f2g4 | 
[V:3] d4G4 | 
[V:1] z2A2B2B2 | 
[V:2] d4d2d2 | 
[V:3] f4f2f2 | 
[V:1] c2c2A2B2- | 
[V:2] c4d4 | 
[V:3] g4f4 | 
[V:1] BAG4^F2 | 
[V:2] B2c2A4 | 
[V:3] d2e2c3B | 
[V:1] G4z2G2 | 
[V:2] G8 | 
[V:3] d4e4 | 
[V:1] A2B2c2G2 | 
[V:2] z2G2A2B2 | 
[V:3] f2d2c2z2 | 
[V:1] c2d2e4 | 
[V:2] c2G2c2d2 | 
[V:3] A2B2A4- | 
[V:1] c2c2f2f2 | 
[V:2] e4d2d2 | 
[V:3] A2c4B2 | 
[V:1] e2dcB4 | 
[V:2] c2c2g4 | 
[V:3] c4G4 | 
[V:1] A2d3cA2 | 
[V:2] f4f2f2 | 
[V:3] d2_B3cd2 | 
[V:1] B2G4c2 | 
[V:2] g4c4 | 
[V:3] G2c4e2 | 
[V:1] d2e3dc2- | 
[V:2] B2c2e2f2 | 
[V:3] d2c4F2 | 
[V:1] c2B2c4 | 
[V:2] d4c4 | 
[V:3] G4g4 | 
[V:1] z8 | 
[V:2] z4g4 | 
[V:3] a2g4e2 | 
[V:1] z4G4 | 
[V:2] a2g4e2 | 
[V:3] f2g2e4 | 
[V:1] A2G4E2 | 
[V:2] f2g2e4 | 
[V:3] d2G2c4 | 
[V:1] F2G2E4 | 
[V:2] z4c4 | 
[V:3] d2c2g2a2- | 
[V:1] z4c4 | 
[V:2] B2G2A2A2 | 
[V:3] agg2z2c2 | 
[V:1] B2G2A2A2 | 
[V:2] G4z2d2 | 
[V:3] d2g4^f2 | 
[V:1] G4z2d2 | 
[V:2] e2f2g2g2 | 
[V:3] g4G2B2 | 
[V:1] e2f2g2g2 | 
[V:2] c4z2G2 | 
[V:3] A2c2B2d2 | 
[V:1] c4z2G2 | 
[V:2] A2c4B2 | 
[V:3] c2e3fg2 | 
[V:1] A2c4B2 | 
[V:2] c4z4 | 
[V:3] e2c2d4 | 
[V:1] c4z4 | 
[V:2] z4e4 | 
[V:3] c2BAG2c2- | 
[V:1] z4e4 | 
[V:2] d4c4 | 
[V:3] c2B2c4 | 
[V:1] d4c2c2 | 
[V:2] f4e2c2 | 
[V:3] _B2d2A4 | 
[V:1] f4e2c2 | 
[V:2] d2cBA4 | 
[V:3] z4a4 | 
[V:1] d2cBA4 | 
[V:2] G4z4 | 
[V:3] b2g4^f2 | 
[V:1] G4B4 | 
[V:2] c4d2e2- | 
[V:3] g4G4 | 
[V:1] c2d4d2 | 
[V:2] e2f2g4 | 
[V:3] c2_B2G4 | 
[V:1] e2dcB4 | 
[V:2] c4z2d2- | 
[V:3] g6f2- | 
[V:1] z2d4d2 | 
[V:2] d2d2G2B2 | 
[V:3] f4g4 | 
[V:1] G2B2c2d2 | 
[V:2] c2d2e4 | 
[V:3] e2d2c4 | 
[V:1] e4c4 | 
[V:2] c4z2e2- | 
[V:3] z2c4A2- | 
[V:1] z2c2B2B2 | 
[V:2] e2f2d2g2- | 
[V:3] A2F2G4 | 
[V:1] A2A2G4 | 
[V:2] g2^f2g4- | 
[V:3] c4G2c2- | 
[V:1] z2E2F2D2 | 
[V:2] g4z4 | 
[V:3] cBc2d2B2 | 
[V:1] E4D2D2 | 
[V:2] z2e2f2d2 | 
[V:3] c2g2a2f2 | 
[V:1] C4z4 | 
[V:2] e4d4 | 
[V:3] g2c4B2 | 
[V:1] z2c2c2d2 | 
[V:2] c4z4 | 
[V:3] c2e2e2f2 | 
[V:1] e3dc2z2 | 
[V:2] z2c2c2d2 | 
[V:3] g3fe4 | 
[V:1] G2A2c3B | 
[V:2] e3dc2z2 | 
[V:3] z2c2c2d2 | 
[V:1] AGG4^F2 | 
[V:2] c2B2A4 | 
[V:3] e2d4c2 | 
[V:1] G4F2E2 | 
[V:2] G4z4 | 
[V:3] d2B2A2c2 | 
[V:1] D2C2E4 | 
[V:2] z8 | 
[V:3] d2e3dc2- | 
[V:1] D4C4 | 
[V:2] z4g4 | 
[V:3] c2B2c4 | 
[V:1] z2c2d2e2- | 
[V:2] f2e2d2c2 | 
[V:3] d2c2B2A2 | 
[V:1] edc4B2 | 
[V:2] e4d4 | 
[V:3] c4G4 | 
[V:1] c8 |]  
[V:2] c8 |]  
[V:3] g8 |]  



